X: 24155
T: Loon And His Quine, The
R: reel
M: 4/4
K: Amajor
|:c2BA GADE-|EcBA GAA/B/c|d3f ecA2-|AB2A BcBA|
BcBA GAE2-|EcBA GAA/B/c|d3f ecAB-|1 BABc ABBA:|2 BABc AceA||
effe fae2-|eBBA cdeA|effe fag2|geg/a/b agec|
effe fac2-|cBBA BcAG|FGAG ABAc|eAce effe|
fae2- eBBA|cdeA effe|fag2 geg/a/b|agec effe|
fac2- cBBA|BcAG FGAG|ABA2- ABBA||

